X:1
T:Title
%%score 1 2
L:1/8
Q:1/4=93
M:3/4
K:Ab
V:1 treble nm="Grand Piano, Soprano"
V:2 bass nm="Choir Pad, La Rioja, J. Lincoln Hall"
V:1
 [CE][CE] [CA] [Ec]3 | [Fd][Ec]- [Ec]/[DB]/ [DB]3 | [DE][DE] [DG] [DB]3 | %3
w: By~Joseph~Lincoln~Hall,~1906 * * *|||
 [Ec][DB]- [DB]/[CA]/ [CA]3 | [CE][CE] [CA] [Ec]3 | [_Ge][Fe]- [Fe]/[Fd]/ [Fd]3 | %6
w: |||
 [Fd][Ec]- [Ec]/[Ec]/ [Ec]3- | [Ec] [CA]2 [DB]2 [CA] | [CA][CA] [Ec] [Ae]3 | %9
w: |||
 [Ac][Ac]- [Ac]/[GB]/ [GB]3 | [GB][GB] [Ac] [Bd]3 | [ce][Bd]- [Bd]/[Ac]/ [Ac]3 | %12
w: |||
 [CE][CE] [CA] [Ec]3 | [_Ge][Fe]- [Fe]/[Fd]/ [Fd]3 | [Fd][Ec]- [Ec]/[Ec]/ [Ec]3- | %15
w: |||
 [Ec] [CA]2 [DB]2 [CA]- | [CA]6 |] %17
w: ||
V:2
 [A,,A,][A,,A,] [A,,A,] [A,,A,]3 | [A,,A,][E,A,]- [E,A,]/[E,G,]/ [E,G,]3 | %2
 [E,G,][E,G,] [E,B,] [E,G,]3 | [E,G,][E,G,]- [E,G,]/[A,,A,]/ [A,,A,]3 | %4
 [A,,A,][A,,A,] [A,,A,] [A,,A,]3 | [C,A,][D,A,]- [D,A,]/[D,A,]/ [D,A,]3 | %6
 [D,A,][E,A,]- [E,A,]/[E,A,]/ [E,A,]3- | [E,A,] [E,A,]2 [E,G,]2 [A,,A,] | %8
 [A,,A,][A,,A,] [A,,A,] [A,C]3 | [A,E][E,E]- [E,E]/[E,E]/ [E,E]3 | [E,E][E,E] [E,E] [E,E]3 | %11
 [E,E][G,E]- [G,E]/[A,E]/ [A,E]3 | [A,,A,][A,,A,] [A,,A,] [A,,A,]3 | %13
 [C,A,][D,A,]- [D,A,]/[D,A,]/ [D,A,]3 | [A,,A,][E,A,]- [E,A,]/[E,A,]/ [E,A,]3- | %15
 [E,A,] [E,A,]2 [E,G,]2 [A,,A,]- | [A,,A,]6 |] %17

